X:1
T:Sebastapol -- Hornpipe
R:hornpipe
B:Cole's 1000 Fiddle Tunes
S: Bob Puckette <BobP:at:workcom.com> 2003-3-7
M:2/4
L:1/16
K:E
uE2|BEGB "0"egba|gbfg eBGE|ABcd efga|gbag f2f2|
B,EGB egbg|fgaf edcB|Bgfa gbfd|e2e2e2:|
uB2|((3dcB) ((3dcB) fdcB|((3gf"0"e) ((3gfe) bgfe|((3dcB).f.B ((3dcB).f.B|
fedc Bagf|((3dcB) ((3dcB) fdcB|((3gf"0"e) ((3gfe) bgfe|((3dcB).f.B gBfB|e2e2e2:|
